X: 10453
T: PADDY O'RAFFERTY
C:
%R: jig
B: Elias Howe "The Musician's Companion" Part 1 1842 p.54 #3
S: http://imslp.org/wiki/The_Musician's_Companion_(Howe,_Elias)
Z: 2015 John Chambers <jc:trillian.mit.edu>
M: 6/8
L: 1/8
K: Bb
% - - - - - - - - - - - - - - - - - - - - - - - - -
|:\
Bdd Fcc | Bdd cBc |\
Bdd Fcc | BcB BGF |\
Bdd Fcc | Bdd cBc |\
Bdf fdB | BcB BGF ::\
BdG G2F | Bdd cBc |
BdG G2F | BcB BGF |\
BdG G2F | Bdd cBc |\
Bdf fdB | BcB BGF ::\
BFF cFF | dFF cFF |\
BFF cFF | BcB BGF |
BFF cFF | dFF cFF |\
Bdf fdB | BcB BGF ::\
Bdf Bdf | Bdf fdB |\
Bdf Bdf | BcB BGF |\
Bdf Bdf | Bdf fga |
bfd fdB | BcB BGF ::\
fdf geg | fdB c2B |\
fdf gab | BcB BGF |\
fdf geg | afa bag |\
fgf ded | BcB BG"^D.C."F :|
% - - - - - - - - - - - - - - - - - - - - - - - - -
